src/assets/ic-borascope.svg

<svg width="97" height="16" viewBox="0 0 97 16" fill="none" xmlns="http://www.w3.org/2000/svg">
<g clip-path="url(#clip0_1_4968)">
<path d="M44.7926 12.5798H43.0701L47.6001 3.13477L52.1301 12.5798H50.4076L49.6826 11.1098H45.5076L44.7951 12.5798H44.7926ZM46.2626 9.50977H48.8951L47.5651 6.80977L46.2626 9.50977Z" fill="#1A1A1A"/>
<path d="M22.615 7.695C22.945 7.25 23.14 6.7025 23.14 6.1075C23.14 4.6325 21.945 3.4375 20.47 3.4375H16.1875V12.58H20.9475C22.455 12.58 23.675 11.36 23.675 9.8525C23.675 8.975 23.26 8.1925 22.615 7.695ZM20.47 5.095C21.03 5.095 21.4825 5.5475 21.4825 6.1075C21.4825 6.6675 21.03 7.12 20.47 7.12C20.4125 7.12 17.905 7.12 17.905 7.12L17.9 5.095H20.47ZM20.9475 10.9325H17.905V8.7775H20.9475C21.5425 8.7775 22.025 9.26 22.025 9.855C22.025 10.45 21.5425 10.9325 20.9475 10.9325Z" fill="#1A1A1A"/>
<path d="M29.2375 3.40723C26.695 3.40723 24.635 5.46723 24.635 8.00973C24.635 10.5522 26.695 12.6122 29.2375 12.6122C31.78 12.6122 33.84 10.5522 33.84 8.00973C33.84 5.46723 31.78 3.40723 29.2375 3.40723ZM29.2375 10.8772C27.6525 10.8772 26.37 9.59223 26.37 8.00973C26.37 6.42723 27.655 5.14223 29.2375 5.14223C30.82 5.14223 32.105 6.42723 32.105 8.00973C32.105 9.59223 30.82 10.8772 29.2375 10.8772Z" fill="#1A1A1A"/>
<path d="M40.2699 9.325C41.3874 8.87 42.1749 7.775 42.1749 6.4925C42.1749 4.805 40.8074 3.4375 39.1199 3.4375H35.1499V12.58H36.8049V9.5375H38.3649L40.4974 12.58H42.5024L40.2699 9.325ZM39.1199 7.8825H36.8049V5.105H39.1199C39.8874 5.105 40.5099 5.7275 40.5099 6.495C40.5099 7.2625 39.8874 7.885 39.1199 7.885V7.8825Z" fill="#1A1A1A"/>
<path d="M54.5625 9.55289V9.71789C54.5625 11.2404 55.655 11.9354 57.5975 11.9354C59.54 11.9354 60.3775 11.0154 60.3775 9.91289C60.3775 9.21789 59.9525 8.51039 58.59 8.40539L56.1375 8.21039C54.4775 8.07539 53.77 7.30539 53.77 6.09789C53.77 4.77039 54.89 3.33789 57.2875 3.33789C59.685 3.33789 60.805 4.56039 60.805 6.15789V6.27789H60.01V6.12789C60.01 4.96539 59.1875 4.09039 57.2875 4.09039C55.6 4.09039 54.565 4.96539 54.565 6.09789C54.565 6.80789 55.02 7.36539 56.21 7.45539L58.65 7.65039C60.4925 7.80039 61.175 8.76789 61.175 9.91289C61.175 11.1354 60.1975 12.6879 57.6025 12.6879C55.1625 12.6879 53.7725 11.5554 53.7725 9.83539V9.54789H54.5675L54.5625 9.55289Z" fill="#1A1A1A"/>
<path d="M69.6899 6.91289V6.76289C69.5774 5.33039 68.4274 4.09289 66.4999 4.09289C64.4724 4.09289 62.8849 5.58539 62.8849 8.01539C62.8849 10.4454 64.4724 11.9379 66.4999 11.9379C68.5274 11.9379 69.5774 10.6704 69.6899 9.43289V9.26789H70.4974V9.35789C70.4974 10.7604 69.2624 12.6929 66.4974 12.6929C64.0299 12.6929 62.0874 10.8979 62.0874 8.01539C62.0874 5.13289 64.0299 3.33789 66.4974 3.33789C69.1499 3.33789 70.4974 5.26789 70.4974 6.80789V6.91289H69.6899Z" fill="#1A1A1A"/>
<path d="M80.585 8.01246C80.585 10.925 78.5424 12.69 76.0174 12.69C73.4924 12.69 71.45 10.925 71.45 8.01246C71.45 5.09996 73.5049 3.33496 76.0174 3.33496C78.5299 3.33496 80.585 5.09996 80.585 8.01246ZM72.2475 8.01246C72.2475 10.4275 73.95 11.935 76.02 11.935C78.09 11.935 79.7924 10.4275 79.7924 8.01246C79.7924 5.59746 78.105 4.08996 76.02 4.08996C73.935 4.08996 72.2475 5.58246 72.2475 8.01246Z" fill="#1A1A1A"/>
<path d="M85.6401 3.4873H82.0801V12.5398H82.8751V9.8998H85.6401C87.5826 9.8998 89.0426 8.7073 89.0426 6.7023C89.0426 4.6973 87.5951 3.4898 85.6401 3.4898V3.4873ZM85.6251 9.1448H82.8751V4.2423H85.6251C87.1701 4.2423 88.2476 5.1623 88.2476 6.7023C88.2476 8.2423 87.1551 9.1473 85.6251 9.1473V9.1448Z" fill="#1A1A1A"/>
<path d="M91.0276 11.7848V8.2398H96.3326V7.4848H91.0276V4.2423H96.7576V3.4873H90.2351V12.5398H96.9001V11.7848H91.0276Z" fill="#1A1A1A"/>
<path d="M12.3645 7.12895L8.56982 9.31981V13.5213C8.56982 13.6092 8.66505 13.6642 8.74123 13.6202L12.3227 11.5525C12.358 11.5321 12.3798 11.4944 12.3798 11.4536V7.18602C12.3798 7.16562 12.3744 7.14602 12.3645 7.12895Z" fill="url(#paint0_linear_1_4968)"/>
<path d="M4.93145 7.21853L6.20499 7.9538L8.56998 9.31925L12.3647 7.12838C12.3548 7.11131 12.3405 7.09679 12.3229 7.08655L8.62709 4.9528C8.59174 4.9324 8.54819 4.9324 8.51283 4.9528L6.07585 6.3598L4.93141 7.02052C4.85522 7.06452 4.85526 7.17454 4.93145 7.21853Z" fill="url(#paint1_linear_1_4968)"/>
<path d="M4.75998 0.114466C4.75998 0.0264814 4.66479 -0.0285092 4.58857 0.0154832L1.00702 2.08329C0.971708 2.10373 0.949951 2.14144 0.949951 2.18223V13.6529C0.949951 13.6733 0.95539 13.6929 0.965268 13.7101L4.75998 11.5192V7.11975V0.114466Z" fill="url(#paint2_linear_1_4968)"/>
<path d="M0.965372 13.7104C0.97521 13.7274 0.989488 13.742 1.00709 13.7521L4.70297 15.886C4.73832 15.9064 4.78188 15.9064 4.81723 15.886L8.39866 13.8182C8.47484 13.7742 8.47484 13.6643 8.39866 13.6203L4.76004 11.5195L0.965372 13.7104Z" fill="url(#paint3_linear_1_4968)"/>
</g>
<defs>
<linearGradient id="paint0_linear_1_4968" x1="9.55086" y1="8.75343" x2="11.4559" y2="12.053" gradientUnits="userSpaceOnUse">
<stop stop-color="#FF00FF"/>
<stop offset="1" stop-color="#9D00FF"/>
</linearGradient>
<linearGradient id="paint1_linear_1_4968" x1="7.64602" y1="5.45331" x2="9.55102" y2="8.75287" gradientUnits="userSpaceOnUse">
<stop stop-color="#FF00FF"/>
<stop offset="1" stop-color="#9D00FF"/>
</linearGradient>
<linearGradient id="paint2_linear_1_4968" x1="5.33852" y1="11.1851" x2="0.314417" y2="2.48314" gradientUnits="userSpaceOnUse">
<stop stop-color="#00FFBE"/>
<stop offset="1" stop-color="#603CF7"/>
</linearGradient>
<linearGradient id="paint3_linear_1_4968" x1="5.68408" y1="15.3855" x2="3.77909" y2="12.0859" gradientUnits="userSpaceOnUse">
<stop stop-color="#00FFBE"/>
<stop offset="1" stop-color="#508CFF"/>
</linearGradient>
<clipPath id="clip0_1_4968">
<rect width="95.95" height="16" fill="white" transform="translate(0.949951)"/>
</clipPath>
</defs>
</svg>

<svg xmlns="http://www.w3.org/2000/svg" fill="none" viewBox="0 0 97 16">
  <g clip-path="url(#a)">
    <path fill="#fff" d="M44.794 12.58H43.07l4.53-9.445 4.53 9.445H50.41l-.725-1.47h-4.175l-.713 1.47h-.002Zm1.47-3.07h2.632l-1.33-2.7-1.302 2.7ZM22.616 7.695a2.67 2.67 0 0 0-2.145-4.258h-4.282v9.143h4.76a2.726 2.726 0 0 0 1.667-4.885Zm-2.145-2.6a1.011 1.011 0 1 1 0 2.025h-2.565l-.005-2.025h2.57Zm.477 5.837h-3.042V8.777h3.043a1.078 1.078 0 0 1 0 2.155ZM29.24 3.406a4.602 4.602 0 0 0-4.602 4.603 4.602 4.602 0 0 0 4.602 4.602 4.602 4.602 0 0 0 4.603-4.602 4.602 4.602 0 0 0-4.603-4.603Zm0 7.47a2.867 2.867 0 1 1 0-5.735 2.867 2.867 0 0 1 0 5.735ZM40.27 9.325a3.056 3.056 0 0 0-1.15-5.887h-3.97v9.142h1.654V9.537h1.56l2.133 3.043h2.005l-2.233-3.255Zm-1.15-1.442h-2.316V5.104h2.315a1.39 1.39 0 0 1 0 2.78v-.002ZM54.563 9.555v.165c0 1.522 1.093 2.217 3.035 2.217 1.943 0 2.78-.92 2.78-2.022 0-.695-.425-1.403-1.788-1.508l-2.452-.195c-1.66-.135-2.367-.905-2.367-2.112 0-1.328 1.12-2.76 3.517-2.76 2.398 0 3.518 1.222 3.518 2.82v.12h-.795v-.15c0-1.163-.823-2.038-2.723-2.038-1.688 0-2.722.875-2.722 2.008 0 .71.454 1.267 1.645 1.357l2.44.195c1.842.15 2.524 1.118 2.524 2.263 0 1.222-.977 2.775-3.572 2.775-2.44 0-3.83-1.133-3.83-2.853V9.55h.795l-.005.005ZM69.69 6.915v-.15c-.113-1.433-1.263-2.67-3.19-2.67-2.028 0-3.616 1.492-3.616 3.922s1.588 3.923 3.615 3.923c2.028 0 3.078-1.268 3.19-2.505V9.27h.808v.09c0 1.402-1.235 3.335-4 3.335-2.468 0-4.41-1.795-4.41-4.678 0-2.882 1.942-4.677 4.41-4.677 2.652 0 4 1.93 4 3.47v.105h-.808ZM80.585 8.013c0 2.913-2.042 4.678-4.567 4.678-2.525 0-4.568-1.765-4.568-4.678 0-2.912 2.055-4.677 4.568-4.677 2.512 0 4.567 1.765 4.567 4.677Zm-8.337 0c0 2.415 1.702 3.923 3.772 3.923s3.773-1.508 3.773-3.923-1.688-3.922-3.773-3.922-3.772 1.492-3.772 3.922ZM85.64 3.488h-3.56v9.053h.794V9.9h2.765c1.943 0 3.403-1.193 3.403-3.198s-1.448-3.212-3.403-3.212v-.003Zm-.016 5.658h-2.75V4.243h2.75c1.545 0 2.623.92 2.623 2.46s-1.093 2.445-2.623 2.445v-.002ZM91.028 11.786V8.24h5.305v-.755h-5.305V4.243h5.73v-.755h-6.522v9.053H96.9v-.755h-5.872Z"/>
    <path fill="url(#b)" d="m12.366 7.129-3.795 2.19v4.202c0 .088.096.143.172.1l3.581-2.069a.114.114 0 0 0 .057-.098V7.186c0-.02-.005-.04-.015-.057Z"/>
    <path fill="url(#c)" d="m4.933 7.219 1.274.735 2.365 1.365 3.794-2.19a.115.115 0 0 0-.041-.042L8.629 4.953a.114.114 0 0 0-.114 0L6.078 6.36l-1.145.66a.114.114 0 0 0 0 .199Z"/>
    <path fill="url(#d)" d="M4.76.114A.114.114 0 0 0 4.59.015L1.007 2.083a.114.114 0 0 0-.057.1v11.47c0 .02.006.04.016.057l3.794-2.19V.113Z"/>
    <path fill="url(#e)" d="M.966 13.71c.01.017.024.032.042.042l3.695 2.134c.036.02.08.02.115 0l3.581-2.068a.114.114 0 0 0 0-.198l-3.638-2.1-3.795 2.19Z"/>
  </g>
  <defs>
    <linearGradient id="b" x1="9.552" x2="11.457" y1="8.753" y2="12.053" gradientUnits="userSpaceOnUse">
      <stop stop-color="#F0F"/>
      <stop offset="1" stop-color="#9D00FF"/>
    </linearGradient>
    <linearGradient id="c" x1="7.648" x2="9.553" y1="5.453" y2="8.753" gradientUnits="userSpaceOnUse">
      <stop stop-color="#F0F"/>
      <stop offset="1" stop-color="#9D00FF"/>
    </linearGradient>
    <linearGradient id="d" x1="5.339" x2=".315" y1="11.185" y2="2.483" gradientUnits="userSpaceOnUse">
      <stop stop-color="#00FFBE"/>
      <stop offset="1" stop-color="#603CF7"/>
    </linearGradient>
    <linearGradient id="e" x1="5.685" x2="3.78" y1="15.386" y2="12.086" gradientUnits="userSpaceOnUse">
      <stop stop-color="#00FFBE"/>
      <stop offset="1" stop-color="#508CFF"/>
    </linearGradient>
    <clipPath id="a">
      <path fill="#fff" d="M.95 0H96.9v16H.95z"/>
    </clipPath>
  </defs>
</svg>
